X:1
T:When This Cruel War is Over
M:4/4
L:1/4
K:Bb
 B3/2 c/2d/2 B/2F/2 D/2| E3/2- F/2 G z| F B d c| c3 z| B3/2 c/2d/2 B/2F/2 D/2|\
 E3/2- F/2 G2| F d d c| B3 z| c3/2 d/2e/2 A/2B/2 c/2| d3/2- c/2 B2|\
 GA/2-B/2 d3/2 c/2| c2- ^c2| d3/2 e/2d/2 c/2B/2 A/2| B2 G z| F d d c|\
 B3 z| e e G G| B2 F z| d3/2 c/2 Bc/2-d/2| c z z2| B3/2 c/2d/2 B/2F/2 D/2|\
 E3/2- F/2 G2| F3/2 B/2A/2 B/2 c3/4 d/4| B3 z|
